Newaita-dark/apps/24/qv4l2.svg

<?xml version="1.0" encoding="UTF-8"?>
<svg xmlns="http://www.w3.org/2000/svg" xmlns:xlink="http://www.w3.org/1999/xlink" width="24pt" height="24pt" viewBox="0 0 24 24" version="1.1">
<defs>
<linearGradient id="linear0" gradientUnits="userSpaceOnUse" x1="111.125038" y1="233.499985" x2="111.125038" y2="254.666641" gradientTransform="matrix(0.0468795,0,0,0.0468795,-0.0000028613,10.079089)">
<stop offset="0" style="stop-color:rgb(0%,0%,0%);stop-opacity:0.27451;"/>
<stop offset="1" style="stop-color:rgb(0%,0%,0%);stop-opacity:0;"/>
</linearGradient>
<radialGradient id="radial0" gradientUnits="userSpaceOnUse" cx="450.908936" cy="189.579361" fx="450.908936" fy="189.579361" r="21.166656" gradientTransform="matrix(0.000000130628,-0.0585994,-0.105479,-0.0000000761539,25.206035,47.696499)">
<stop offset="0" style="stop-color:rgb(0%,0%,0%);stop-opacity:0.313725;"/>
<stop offset="0.222222" style="stop-color:rgb(0%,0%,0%);stop-opacity:0.27451;"/>
<stop offset="1" style="stop-color:rgb(0%,0%,0%);stop-opacity:0;"/>
</radialGradient>
<radialGradient id="radial1" gradientUnits="userSpaceOnUse" cx="450.908936" cy="189.579361" fx="450.908936" fy="189.579361" r="21.166656" gradientTransform="matrix(-0.000000130628,0.0585994,0.105479,0.0000000761539,-14.787073,-5.645609)">
<stop offset="0" style="stop-color:rgb(0%,0%,0%);stop-opacity:0.313725;"/>
<stop offset="0.222222" style="stop-color:rgb(0%,0%,0%);stop-opacity:0.27451;"/>
<stop offset="1" style="stop-color:rgb(0%,0%,0%);stop-opacity:0;"/>
</radialGradient>
<radialGradient id="radial2" gradientUnits="userSpaceOnUse" cx="450.908936" cy="189.579361" fx="450.908936" fy="189.579361" r="21.166656" gradientTransform="matrix(-0.000000130628,-0.0585994,0.105479,-0.0000000761539,-14.787073,47.696499)">
<stop offset="0" style="stop-color:rgb(0%,0%,0%);stop-opacity:0.313725;"/>
<stop offset="0.222222" style="stop-color:rgb(0%,0%,0%);stop-opacity:0.27451;"/>
<stop offset="1" style="stop-color:rgb(0%,0%,0%);stop-opacity:0;"/>
</radialGradient>
<radialGradient id="radial3" gradientUnits="userSpaceOnUse" cx="450.908936" cy="189.579361" fx="450.908936" fy="189.579361" r="21.166656" gradientTransform="matrix(0.000000130628,0.0585994,-0.105479,0.0000000761539,25.206033,-5.64561)">
<stop offset="0" style="stop-color:rgb(0%,0%,0%);stop-opacity:0.313725;"/>
<stop offset="0.222222" style="stop-color:rgb(0%,0%,0%);stop-opacity:0.27451;"/>
<stop offset="1" style="stop-color:rgb(0%,0%,0%);stop-opacity:0;"/>
</radialGradient>
<linearGradient id="linear1" gradientUnits="userSpaceOnUse" x1="127" y1="233.5" x2="127" y2="170" gradientTransform="matrix(1,0,0,1,-10.583323,0)">
<stop offset="0" style="stop-color:rgb(47.45098%,33.333333%,28.235294%);stop-opacity:1;"/>
<stop offset="1" style="stop-color:rgb(55.294118%,43.137255%,38.823529%);stop-opacity:1;"/>
</linearGradient>
<linearGradient id="linear2" gradientUnits="userSpaceOnUse" x1="111.125038" y1="233.499985" x2="111.125038" y2="254.666641" gradientTransform="matrix(0.0468795,0,0,0.0468795,13.395805,10.079089)">
<stop offset="0" style="stop-color:rgb(0%,0%,0%);stop-opacity:0.27451;"/>
<stop offset="1" style="stop-color:rgb(0%,0%,0%);stop-opacity:0;"/>
</linearGradient>
<radialGradient id="radial4" gradientUnits="userSpaceOnUse" cx="450.908936" cy="189.579361" fx="450.908936" fy="189.579361" r="21.166656" gradientTransform="matrix(0.000000130628,-0.0585994,-0.105479,-0.0000000761539,38.601842,47.696499)">
<stop offset="0" style="stop-color:rgb(0%,0%,0%);stop-opacity:0.313725;"/>
<stop offset="0.222222" style="stop-color:rgb(0%,0%,0%);stop-opacity:0.27451;"/>
<stop offset="1" style="stop-color:rgb(0%,0%,0%);stop-opacity:0;"/>
</radialGradient>
<radialGradient id="radial5" gradientUnits="userSpaceOnUse" cx="450.908936" cy="189.579361" fx="450.908936" fy="189.579361" r="21.166656" gradientTransform="matrix(-0.000000130628,0.0585994,0.105479,0.0000000761539,-1.391265,-5.645609)">
<stop offset="0" style="stop-color:rgb(0%,0%,0%);stop-opacity:0.313725;"/>
<stop offset="0.222222" style="stop-color:rgb(0%,0%,0%);stop-opacity:0.27451;"/>
<stop offset="1" style="stop-color:rgb(0%,0%,0%);stop-opacity:0;"/>
</radialGradient>
<radialGradient id="radial6" gradientUnits="userSpaceOnUse" cx="450.908936" cy="189.579361" fx="450.908936" fy="189.579361" r="21.166656" gradientTransform="matrix(-0.000000130628,-0.0585994,0.105479,-0.0000000761539,-1.391265,47.696499)">
<stop offset="0" style="stop-color:rgb(0%,0%,0%);stop-opacity:0.313725;"/>
<stop offset="0.222222" style="stop-color:rgb(0%,0%,0%);stop-opacity:0.27451;"/>
<stop offset="1" style="stop-color:rgb(0%,0%,0%);stop-opacity:0;"/>
</radialGradient>
<radialGradient id="radial7" gradientUnits="userSpaceOnUse" cx="450.908936" cy="189.579361" fx="450.908936" fy="189.579361" r="21.166656" gradientTransform="matrix(0.000000130628,0.0585994,-0.105479,0.0000000761539,38.601841,-5.64561)">
<stop offset="0" style="stop-color:rgb(0%,0%,0%);stop-opacity:0.313725;"/>
<stop offset="0.222222" style="stop-color:rgb(0%,0%,0%);stop-opacity:0.27451;"/>
<stop offset="1" style="stop-color:rgb(0%,0%,0%);stop-opacity:0;"/>
</radialGradient>
<linearGradient id="linear3" gradientUnits="userSpaceOnUse" x1="127" y1="233.5" x2="127" y2="170" gradientTransform="matrix(1,0,0,1,275.166656,0)">
<stop offset="0" style="stop-color:rgb(47.45098%,33.333333%,28.235294%);stop-opacity:1;"/>
<stop offset="1" style="stop-color:rgb(55.294118%,43.137255%,38.823529%);stop-opacity:1;"/>
</linearGradient>
<linearGradient id="linear4" gradientUnits="userSpaceOnUse" x1="305.954559" y1="-37.962509" x2="305.954559" y2="-141.414581" gradientTransform="matrix(0.0565122,0,0,0.163059,-4.39051,25.231011)">
<stop offset="0" style="stop-color:rgb(47.45098%,33.333333%,28.235294%);stop-opacity:1;"/>
<stop offset="1" style="stop-color:rgb(55.294118%,43.137255%,38.823529%);stop-opacity:1;"/>
</linearGradient>
<linearGradient id="linear5" gradientUnits="userSpaceOnUse" x1="285.75" y1="-126.333344" x2="285.75" y2="148.833328" gradientTransform="matrix(1,0,0,1,0,0)">
<stop offset="0" style="stop-color:rgb(63.137255%,53.333333%,49.803922%);stop-opacity:1;"/>
<stop offset="1" style="stop-color:rgb(73.72549%,66.666667%,64.313725%);stop-opacity:1;"/>
</linearGradient>
</defs>
<g id="surface1">
<path style=" stroke:none;fill-rule:nonzero;fill:url(#linear0);" d="M 4.960938 21.027344 L 5.457031 21.027344 L 5.457031 22.019531 L 4.960938 22.019531 Z M 4.960938 21.027344 "/>
<path style=" stroke:none;fill-rule:nonzero;fill:url(#radial0);" d="M 5.457031 21.027344 L 7.441406 21.027344 L 7.441406 20.03125 L 5.457031 20.03125 Z M 5.457031 21.027344 "/>
<path style=" stroke:none;fill-rule:nonzero;fill:url(#radial1);" d="M 4.960938 21.027344 L 2.976562 21.027344 L 2.976562 22.019531 L 4.960938 22.019531 Z M 4.960938 21.027344 "/>
<path style=" stroke:none;fill-rule:nonzero;fill:url(#radial2);" d="M 4.960938 21.027344 L 2.976562 21.027344 L 2.976562 20.03125 L 4.960938 20.03125 Z M 4.960938 21.027344 "/>
<path style=" stroke:none;fill-rule:nonzero;fill:url(#radial3);" d="M 5.457031 21.027344 L 7.441406 21.027344 L 7.441406 22.019531 L 5.457031 22.019531 Z M 5.457031 21.027344 "/>
<path style="fill-rule:nonzero;fill:url(#linear1);stroke-width:3;stroke-linecap:square;stroke-linejoin:round;stroke:rgb(12.941177%,12.941177%,12.941177%);stroke-opacity:1;stroke-miterlimit:4;" d="M 95.240905 169.963238 L 126.987873 169.963238 C 132.82065 169.963238 137.570196 174.712784 137.570196 180.545561 L 137.570196 222.958177 C 137.570196 228.790953 132.82065 233.5405 126.987873 233.5405 L 95.240905 233.5405 C 89.408129 233.5405 84.658582 228.790953 84.658582 222.958177 L 84.658582 180.545561 C 84.658582 174.712784 89.408129 169.963238 95.240905 169.963238 Z M 95.240905 169.963238 " transform="matrix(0.0468795,0,0,0.0468795,0,10.079087)"/>
<path style=" stroke:none;fill-rule:nonzero;fill:url(#linear2);" d="M 18.355469 21.027344 L 18.851562 21.027344 L 18.851562 22.019531 L 18.355469 22.019531 Z M 18.355469 21.027344 "/>
<path style=" stroke:none;fill-rule:nonzero;fill:url(#radial4);" d="M 18.851562 21.027344 L 20.839844 21.027344 L 20.839844 20.03125 L 18.851562 20.03125 Z M 18.851562 21.027344 "/>
<path style=" stroke:none;fill-rule:nonzero;fill:url(#radial5);" d="M 18.355469 21.027344 L 16.371094 21.027344 L 16.371094 22.019531 L 18.355469 22.019531 Z M 18.355469 21.027344 "/>
<path style=" stroke:none;fill-rule:nonzero;fill:url(#radial6);" d="M 18.355469 21.027344 L 16.371094 21.027344 L 16.371094 20.03125 L 18.355469 20.03125 Z M 18.355469 21.027344 "/>
<path style=" stroke:none;fill-rule:nonzero;fill:url(#radial7);" d="M 18.851562 21.027344 L 20.839844 21.027344 L 20.839844 22.019531 L 18.851562 22.019531 Z M 18.851562 21.027344 "/>
<path style="fill-rule:nonzero;fill:url(#linear3);stroke-width:3;stroke-linecap:square;stroke-linejoin:round;stroke:rgb(12.941177%,12.941177%,12.941177%);stroke-opacity:1;stroke-miterlimit:4;" d="M 380.96362 169.963238 L 412.710588 169.963238 C 418.62669 169.963238 423.292911 174.712784 423.292911 180.545561 L 423.292911 222.958177 C 423.292911 228.790953 418.62669 233.5405 412.710588 233.5405 L 380.96362 233.5405 C 375.130843 233.5405 370.381297 228.790953 370.381297 222.958177 L 370.381297 180.545561 C 370.381297 174.712784 375.130843 169.963238 380.96362 169.963238 Z M 380.96362 169.963238 " transform="matrix(0.0468795,0,0,0.0468795,0,10.079087)"/>
<path style=" stroke:none;fill-rule:nonzero;fill:url(#linear4);" d="M 2.976562 2.171875 L 20.839844 2.171875 C 21.386719 2.171875 21.832031 2.617188 21.832031 3.164062 L 21.832031 18.046875 C 21.832031 18.597656 21.386719 19.039062 20.839844 19.039062 L 2.976562 19.039062 C 2.429688 19.039062 1.984375 18.597656 1.984375 18.046875 L 1.984375 3.164062 C 1.984375 2.617188 2.429688 2.171875 2.976562 2.171875 Z M 2.976562 2.171875 "/>
<path style=" stroke:none;fill-rule:nonzero;fill:rgb(0%,0%,0%);fill-opacity:0.196078;" d="M 2.976562 19.039062 C 2.425781 19.039062 1.984375 17.5 1.984375 18.046875 C 1.984375 18.597656 2.425781 18.917969 2.976562 18.917969 L 20.839844 18.917969 C 21.386719 18.917969 21.832031 18.472656 21.832031 17.925781 L 21.832031 18.046875 C 21.832031 18.597656 21.386719 19.039062 20.839844 19.039062 Z M 2.976562 19.039062 "/>
<path style=" stroke:none;fill-rule:nonzero;fill:rgb(90.196079%,90.196079%,90.196079%);fill-opacity:0.937255;" d="M 2.976562 2.171875 C 2.425781 2.171875 1.984375 2.613281 1.984375 3.164062 L 1.984375 3.289062 C 1.984375 2.738281 2.425781 2.296875 2.976562 2.296875 L 20.839844 2.296875 C 21.386719 2.296875 21.832031 2.738281 21.832031 3.289062 L 21.832031 3.164062 C 21.832031 2.613281 21.386719 2.171875 20.839844 2.171875 Z M 2.976562 2.171875 "/>
<path style="fill-rule:nonzero;fill:url(#linear5);stroke-width:3;stroke-linecap:round;stroke-linejoin:miter;stroke:rgb(12.941177%,12.941177%,12.941177%);stroke-opacity:1;stroke-miterlimit:4;" d="M 95.240905 -126.3418 L 412.710588 -126.3418 C 418.62669 -126.3418 423.292911 -121.592253 423.292911 -115.759477 L 423.292911 138.21627 C 423.292911 144.132371 418.62669 148.798592 412.710588 148.798592 L 95.240905 148.798592 C 89.408129 148.798592 84.658582 144.132371 84.658582 138.21627 L 84.658582 -115.759477 C 84.658582 -121.592253 89.408129 -126.3418 95.240905 -126.3418 Z M 95.240905 -126.3418 " transform="matrix(0.0468795,0,0,0.0468795,0,10.079087)"/>
<path style=" stroke:none;fill-rule:nonzero;fill:rgb(12.941177%,12.941177%,12.941177%);fill-opacity:1;" d="M 2.976562 2.101562 C 2.390625 2.101562 1.914062 2.578125 1.914062 3.164062 L 1.914062 18.046875 C 1.914062 18.636719 2.390625 19.109375 2.976562 19.109375 L 20.839844 19.109375 C 21.425781 19.109375 21.902344 18.636719 21.902344 18.046875 L 21.902344 3.164062 C 21.902344 2.578125 21.425781 2.101562 20.839844 2.101562 Z M 2.976562 2.242188 L 20.839844 2.242188 C 21.351562 2.242188 21.761719 2.652344 21.761719 3.164062 L 21.761719 18.046875 C 21.761719 18.5625 21.351562 18.96875 20.839844 18.96875 L 2.976562 18.96875 C 2.464844 18.96875 2.054688 18.5625 2.054688 18.046875 L 2.054688 3.164062 C 2.054688 2.652344 2.464844 2.242188 2.976562 2.242188 Z M 2.976562 2.242188 "/>
</g>
</svg>

<svg xmlns="http://www.w3.org/2000/svg" width="32" height="32" viewBox="0 0 24 24"><defs><linearGradient id="a" gradientUnits="userSpaceOnUse" x1="111.125" y1="233.5" x2="111.125" y2="254.667" gradientTransform="matrix(.04688 0 0 .04688 0 10.08)"><stop offset="0" stop-opacity=".275"/><stop offset="1" stop-opacity="0"/></linearGradient><radialGradient id="b" gradientUnits="userSpaceOnUse" cx="450.909" cy="189.579" fx="450.909" fy="189.579" r="21.167" gradientTransform="matrix(0 -.0586 -.10548 0 25.206 47.696)"><stop offset="0" stop-opacity=".314"/><stop offset=".222" stop-opacity=".275"/><stop offset="1" stop-opacity="0"/></radialGradient><radialGradient id="c" gradientUnits="userSpaceOnUse" cx="450.909" cy="189.579" fx="450.909" fy="189.579" r="21.167" gradientTransform="matrix(0 .0586 .10548 0 -14.787 -5.646)"><stop offset="0" stop-opacity=".314"/><stop offset=".222" stop-opacity=".275"/><stop offset="1" stop-opacity="0"/></radialGradient><radialGradient id="d" gradientUnits="userSpaceOnUse" cx="450.909" cy="189.579" fx="450.909" fy="189.579" r="21.167" gradientTransform="matrix(0 -.0586 .10548 0 -14.787 47.696)"><stop offset="0" stop-opacity=".314"/><stop offset=".222" stop-opacity=".275"/><stop offset="1" stop-opacity="0"/></radialGradient><radialGradient id="e" gradientUnits="userSpaceOnUse" cx="450.909" cy="189.579" fx="450.909" fy="189.579" r="21.167" gradientTransform="matrix(0 .0586 -.10548 0 25.206 -5.646)"><stop offset="0" stop-opacity=".314"/><stop offset=".222" stop-opacity=".275"/><stop offset="1" stop-opacity="0"/></radialGradient><linearGradient id="f" gradientUnits="userSpaceOnUse" x1="127" y1="233.5" x2="127" y2="170" gradientTransform="translate(-10.583)"><stop offset="0" stop-color="#795548"/><stop offset="1" stop-color="#8d6e63"/></linearGradient><linearGradient id="g" gradientUnits="userSpaceOnUse" x1="111.125" y1="233.5" x2="111.125" y2="254.667" gradientTransform="matrix(.04688 0 0 .04688 13.396 10.08)"><stop offset="0" stop-opacity=".275"/><stop offset="1" stop-opacity="0"/></linearGradient><radialGradient id="h" gradientUnits="userSpaceOnUse" cx="450.909" cy="189.579" fx="450.909" fy="189.579" r="21.167" gradientTransform="matrix(0 -.0586 -.10548 0 38.602 47.696)"><stop offset="0" stop-opacity=".314"/><stop offset=".222" stop-opacity=".275"/><stop offset="1" stop-opacity="0"/></radialGradient><radialGradient id="i" gradientUnits="userSpaceOnUse" cx="450.909" cy="189.579" fx="450.909" fy="189.579" r="21.167" gradientTransform="matrix(0 .0586 .10548 0 -1.391 -5.646)"><stop offset="0" stop-opacity=".314"/><stop offset=".222" stop-opacity=".275"/><stop offset="1" stop-opacity="0"/></radialGradient><radialGradient id="j" gradientUnits="userSpaceOnUse" cx="450.909" cy="189.579" fx="450.909" fy="189.579" r="21.167" gradientTransform="matrix(0 -.0586 .10548 0 -1.391 47.696)"><stop offset="0" stop-opacity=".314"/><stop offset=".222" stop-opacity=".275"/><stop offset="1" stop-opacity="0"/></radialGradient><radialGradient id="k" gradientUnits="userSpaceOnUse" cx="450.909" cy="189.579" fx="450.909" fy="189.579" r="21.167" gradientTransform="matrix(0 .0586 -.10548 0 38.602 -5.646)"><stop offset="0" stop-opacity=".314"/><stop offset=".222" stop-opacity=".275"/><stop offset="1" stop-opacity="0"/></radialGradient><linearGradient id="l" gradientUnits="userSpaceOnUse" x1="127" y1="233.5" x2="127" y2="170" gradientTransform="translate(275.167)"><stop offset="0" stop-color="#795548"/><stop offset="1" stop-color="#8d6e63"/></linearGradient><linearGradient id="m" gradientUnits="userSpaceOnUse" x1="305.955" y1="-37.963" x2="305.955" y2="-141.415" gradientTransform="matrix(.05651 0 0 .16306 -4.39 25.231)"><stop offset="0" stop-color="#795548"/><stop offset="1" stop-color="#8d6e63"/></linearGradient><linearGradient id="n" gradientUnits="userSpaceOnUse" x1="285.75" y1="-126.333" x2="285.75" y2="148.833"><stop offset="0" stop-color="#a1887f"/><stop offset="1" stop-color="#bcaaa4"/></linearGradient></defs><path d="M4.96 21.027h.497v.993h-.496zm0 0" fill="url(#a)"/><path d="M5.457 21.027h1.984v-.996H5.457zm0 0" fill="url(#b)"/><path d="M4.96 21.027H2.978v.993H4.96zm0 0" fill="url(#c)"/><path d="M4.96 21.027H2.978v-.996H4.96zm0 0" fill="url(#d)"/><path d="M5.457 21.027h1.984v.993H5.457zm0 0" fill="url(#e)"/><path d="M95.24 169.963h31.748c5.833 0 10.582 4.75 10.582 10.583v42.412c0 5.833-4.75 10.583-10.582 10.583H95.24c-5.833 0-10.582-4.75-10.582-10.583v-42.412c0-5.833 4.75-10.583 10.582-10.583zm0 0" transform="matrix(.04688 0 0 .04688 0 10.08)" fill="url(#f)" stroke-width="3" stroke-linecap="square" stroke-linejoin="round" stroke="#212121"/><path d="M18.355 21.027h.497v.993h-.497zm0 0" fill="url(#g)"/><path d="M18.852 21.027h1.988v-.996h-1.988zm0 0" fill="url(#h)"/><path d="M18.355 21.027h-1.984v.993h1.984zm0 0" fill="url(#i)"/><path d="M18.355 21.027h-1.984v-.996h1.984zm0 0" fill="url(#j)"/><path d="M18.852 21.027h1.988v.993h-1.988zm0 0" fill="url(#k)"/><path d="M380.964 169.963h31.747c5.916 0 10.582 4.75 10.582 10.583v42.412a10.544 10.544 0 0 1-10.582 10.583h-31.747c-5.833 0-10.583-4.75-10.583-10.583v-42.412c0-5.833 4.75-10.583 10.583-10.583zm0 0" transform="matrix(.04688 0 0 .04688 0 10.08)" fill="url(#l)" stroke-width="3" stroke-linecap="square" stroke-linejoin="round" stroke="#212121"/><path d="M2.977 2.172H20.84c.547 0 .992.445.992.992v14.883c0 .55-.445.992-.992.992H2.977a.991.991 0 0 1-.993-.992V3.164c0-.547.446-.992.993-.992zm0 0" fill="url(#m)"/><path d="M2.977 19.04c-.551 0-.993-1.54-.993-.993 0 .55.442.871.993.871H20.84a.994.994 0 0 0 .992-.992v.12c0 .552-.445.993-.992.993zm0 0" fill-opacity=".196"/><path d="M2.977 2.172a.989.989 0 0 0-.993.992v.125c0-.55.442-.992.993-.992H20.84c.547 0 .992.441.992.992v-.125a.991.991 0 0 0-.992-.992zm0 0" fill="#e6e6e6" fill-opacity=".937"/><path d="M95.24-126.342h317.47c5.917 0 10.583 4.75 10.583 10.583v253.975c0 5.916-4.666 10.583-10.582 10.583H95.24a10.544 10.544 0 0 1-10.582-10.583v-253.975c0-5.833 4.75-10.583 10.582-10.583zm0 0" transform="matrix(.04688 0 0 .04688 0 10.08)" fill="url(#n)" stroke-width="3" stroke-linecap="round" stroke="#212121"/><path d="M2.977 2.102c-.586 0-1.063.476-1.063 1.062v14.883c0 .59.477 1.062 1.063 1.062H20.84c.586 0 1.062-.472 1.062-1.062V3.164c0-.586-.476-1.062-1.062-1.062zm0 .14H20.84c.512 0 .922.41.922.922v14.883c0 .515-.41.922-.922.922H2.977a.916.916 0 0 1-.922-.922V3.164c0-.512.41-.922.922-.922zm0 0" fill="#212121"/></svg>
